app/dist/common/images/scripps-ew-company.svg

<svg height="18" width="18" xmlns="http://www.w3.org/2000/svg"><path d="m0 0h18v18h-18z" fill="#0033a1"/><path d="m14 4h-10v10h10z" fill="#fff"/><g fill="#0033a1"><path d="m5 7.659v.983l2.685-.983zm4.002-2.373 1.219 1.429 2.781-.984v-.731h-8.002v.725l2.797.99 1.205-1.43zm-4.002 1.144v.857h2.68l-2.68-.858zm8.002.857v-.858l-2.63.858zm0 1.358v-.995l-2.63.002z"/><path d="m9.014 5.998-.584.717h1.144zm-1.156 2.146-2.858.985v2.73h2.68zm.457 0-.157 3.716h1.674l-.154-3.716z"/><path d="m10.3 11.86h1.7v.572h-7v.57h8.002v-3.852l-2.862-1.006.162 3.716z"/></g></svg>

<!-- by TradingView --><svg width="18" height="18" xmlns="http://www.w3.org/2000/svg"><path fill="#0033A1" d="M0 0h18v18H0z"/><path d="M14 4H4v10h10V4z" fill="#fff"/><path d="M5 7.659v.983l2.685-.983H5zM9.002 5.286l1.219 1.429 2.781-.984V5H5v.725l2.797.99 1.205-1.43zM5 6.43v.857h2.68L5 6.429zM13.002 7.287v-.858l-2.63.858h2.63zM13.002 8.645V7.65l-2.63.002 2.63.993z" fill="#0033A1"/><path d="M9.014 5.998l-.584.717h1.144l-.56-.717zM7.858 8.144L5 9.129v2.73h2.68l.178-3.715zM8.315 8.144l-.157 3.716h1.674l-.154-3.716H8.315z" fill="#0033A1"/><path d="M10.3 11.86H12v.572H5v.57h8.002V9.15L10.14 8.144l.162 3.716z" fill="#0033A1"/></svg>
